X:345
T:Atude
M:C|
C:© Paul Gitlitz 2013
K:Am
EG|"Am"A2 AB AGEB|"C"c2cd cBAc|"F"f2fg fedc|FAcB "E"^G2EG|!
"Am" A2 AB AGAB|"C"cBcd ecfe|"F"gfed cBAG|1"E7"EBA^G "Am"A2:|2"E7"FBA^G "Am" A4|!
|:"Am"EA2E A2c2|"G"BcBA G3E|"Am"A2c2 e2d2|"E7"e3f e4|!
"Am"e^fgf edcB|"C"cded cBAG|"F"EGAc "E7"BA^GE|"Am"A8:|]
